X: 38008
T: Speed The Plough
R: reel
M: 4/4
K: Dmajor
|:"D"(d2"d"d)A BA"d"FB|AF"d"FF EF"d"DE|F2"d"AF "G"(G2"g"G)B|"A"AB"a"de fe"a"dc|
"D"(d2"d"d)A BA"d"FB|AF"d"FF EF"d"DE|F2"d"AF "G"(G2"g"G)B|1 "A"AB"a"de fe"a"dc:|2 "A"AB"a"de fe"a"de||
|:"D"fa"d"ab af"d"df|"G"g2"g"fg "A"ed"a"Bd|"D"fa"d"ab af"d"dB|"G"AB"g"de fe"A"de|
"D"fa"d"ab af"d"df|"G"g2"g"fg "A"ed"a"BA|"D"F2"d"AF "G"(G2"g"G)B|1 "A"AB"a"de fe"a"de:|2 "A"AB"a"de fe"a"dc||

